X: 584
T: Fiddler's Drunk and the Fun's All Over
B: jims roots
M:C|
L:1/8
Q: 1/4=100
K:C
V:1 
AB | "C"cBcd c2AB | cdcB AGED | "G"Bd2d d2Bc | dABd AGED |
"C"CEcd c2AB | cBcd edef | "G"g^fga gedA | "C"(A[c)2E][cE] [c2E][G,D]([CE] ||
"C"[CE])[cE][cE][cE] [c2E]AB | cBcd AGED | "G"Bddd d2Bc | dABd AGED |
"C"CEcd cBAB | cBcd edef | "G"g^fga gedd | "C"[DA][c2E][cE] [c2E]y{d}([e2e] ||
|: "C"[ee])eeg edcA | edcA A-G3 | "G"eg2a g2 {a}(b2 | b)gbg age2 |
"C"e2eg edcd | edcA AGEG | "G"DGG2 A2B2 | "C"(A[c)3E] [c2E][c2E] :|
% abcbook-tune_id 6298c25d4b114803794769eb


% abcbook-boost 0
% abcbook-tablature 
% abcbook-transpose 
% abcbook-lastupdated 1654178398134
% abcbook-soundfonts 
% abcbook-repeats 1


